assets/features/channel/east-asia/bc-card.svg

<svg width="80" height="80" viewBox="0 0 80 80" fill="none" xmlns="http://www.w3.org/2000/svg">
<rect x="0.5" y="0.5" width="79" height="79" rx="7.5" fill="white"/>
<rect x="0.5" y="0.5" width="79" height="79" rx="7.5" stroke="#EEEEEE"/>
<path fill-rule="evenodd" clip-rule="evenodd" d="M22.3773 37.9204L23.9056 36.3921C24.1603 36.1374 24.3301 35.8827 24.4999 35.5431C24.6697 35.0336 24.7546 34.694 24.7546 34.4393C24.7546 33.5053 23.7358 33.9299 23.3112 34.3544C22.8867 34.9487 22.3773 35.4582 21.8679 36.0525L22.3773 37.9204ZM24.5012 43.6954C25.52 42.9312 26.2842 42.3356 26.7087 41.7412C27.2181 41.1469 27.303 39.9582 27.0483 39.1927C26.7936 38.5984 26.2842 38.4286 25.2653 38.938C24.6697 39.5324 24.0767 40.2116 23.3974 40.806C23.6522 42.0822 23.9918 43.186 24.5012 43.6954ZM39.1934 23.1428C43.4399 22.8881 46.0732 24.2466 46.8373 27.1347C45.2242 27.3895 43.6946 27.6455 42.0814 27.8989C41.572 26.6253 40.5532 25.7762 38.94 26.031C36.5627 26.3706 35.5426 27.3895 35.5426 29.7668C35.7973 33.1644 37.0721 34.7776 39.7041 35.0323C42.0814 35.0323 43.4412 33.6725 43.1865 31.0404C44.7997 30.8706 46.499 30.7008 48.1971 30.5297C49.0461 34.9461 47.3481 37.8342 42.9318 39.1078C40.5545 39.7035 37.8363 40.1267 35.5426 39.4475C32.5709 38.5135 30.1074 35.031 29.9376 31.9731C29.7678 29.0863 31.381 25.8585 34.0143 24.4151C35.3715 23.7372 37.0708 23.3126 39.1934 23.1428ZM40.0424 20C35.2865 20 31.0401 21.3598 27.6426 24.2466C23.9905 27.1334 21.6132 30.531 20.5094 35.0323C21.1037 34.1833 21.6132 33.4191 22.1226 32.655C23.1414 31.0417 24.4999 30.0216 25.7747 29.2574C28.6615 28.4083 29.2571 30.2763 27.3879 35.0323C30.7854 35.0323 32.1438 37.4097 31.2948 42.0809C31.0401 43.4394 30.2746 44.7143 28.4068 45.8167C26.8785 47.0916 25.7747 48.4501 25.0106 49.7237C21.6132 46.8356 20 41.8248 20.5094 35.2857C20.2547 36.5593 20 38.1726 20 40.0418C20 45.5633 21.8679 50.2332 25.7747 54.2251C29.7665 58.1308 34.4362 60 40.0424 60C45.5625 60 49.9788 58.1308 53.9705 54.2251C57.8761 50.2319 60 45.562 60 40.0418C60 34.5216 57.8761 29.7655 53.9705 25.7736C49.9788 21.8692 45.5625 20 40.0424 20Z" fill="#CC262D"/>
</svg>

<svg xmlns="http://www.w3.org/2000/svg" width="80" height="80" fill="none" viewBox="0 0 80 80"><rect width="79" height="79" x=".5" y=".5" fill="#fff" rx="7.5"/><rect width="79" height="79" x=".5" y=".5" stroke="#eee" rx="7.5"/><path fill="#cc262d" fill-rule="evenodd" d="m22.377 37.92 1.529-1.528a3 3 0 0 0 .594-.849c.17-.51.255-.849.255-1.104 0-.934-1.02-.51-1.444-.085-.424.595-.934 1.104-1.443 1.699zm2.124 5.775c1.019-.764 1.783-1.36 2.208-1.954.51-.594.594-1.783.34-2.548-.255-.595-.765-.764-1.784-.255-.595.594-1.188 1.274-1.868 1.868.255 1.276.595 2.38 1.104 2.89m14.692-20.552c4.247-.255 6.88 1.104 7.644 3.992-1.613.255-3.142.51-4.756.764-.509-1.274-1.528-2.123-3.141-1.868-2.377.34-3.397 1.359-3.397 3.736.254 3.397 1.53 5.01 4.161 5.265 2.377 0 3.737-1.36 3.483-3.992 1.613-.17 3.312-.34 5.01-.51.85 4.416-.849 7.304-5.265 8.578-2.378.596-5.096 1.019-7.39.34-2.971-.934-5.435-4.417-5.604-7.475-.17-2.887 1.443-6.114 4.076-7.558 1.357-.678 3.057-1.102 5.18-1.272m.85-3.143c-4.757 0-9.003 1.36-12.4 4.247-3.652 2.886-6.03 6.284-7.134 10.785.595-.849 1.104-1.613 1.614-2.377 1.018-1.613 2.377-2.633 3.652-3.398 2.887-.849 3.482 1.02 1.613 5.775 3.397 0 4.756 2.378 3.907 7.049-.255 1.358-1.02 2.633-2.888 3.736-1.529 1.275-2.632 2.633-3.396 3.907-3.398-2.888-5.011-7.9-4.502-14.438-.254 1.273-.509 2.887-.509 4.756 0 5.521 1.868 10.191 5.775 14.183C29.767 58.131 34.436 60 40.042 60c5.52 0 9.937-1.87 13.929-5.775C57.876 50.232 60 45.562 60 40.042s-2.124-10.277-6.03-14.268C49.98 21.869 45.564 20 40.043 20" clip-rule="evenodd"/></svg>
